neru-light-classic/22x22/places/folder-copy-cloud.svg

<?xml version="1.0" encoding="UTF-8" standalone="no"?>
<svg
   xmlns:dc="http://purl.org/dc/elements/1.1/"
   xmlns:cc="http://creativecommons.org/ns#"
   xmlns:rdf="http://www.w3.org/1999/02/22-rdf-syntax-ns#"
   xmlns:svg="http://www.w3.org/2000/svg"
   xmlns="http://www.w3.org/2000/svg"
   xmlns:sodipodi="http://sodipodi.sourceforge.net/DTD/sodipodi-0.dtd"
   xmlns:inkscape="http://www.inkscape.org/namespaces/inkscape"
   width="22"
   height="22"
   version="1.1"
   viewBox="0 0 16 16"
   id="svg7"
   sodipodi:docname="folder-copy-cloud.svg"
   inkscape:version="0.92.4 5da689c313, 2019-01-14">
  <metadata
     id="metadata11">
    <rdf:RDF>
      <cc:Work
         rdf:about="">
        <dc:format>image/svg+xml</dc:format>
        <dc:type
           rdf:resource="http://purl.org/dc/dcmitype/StillImage" />
      </cc:Work>
    </rdf:RDF>
  </metadata>
  <sodipodi:namedview
     pagecolor="#ffffff"
     bordercolor="#666666"
     borderopacity="1"
     objecttolerance="10"
     gridtolerance="10"
     guidetolerance="10"
     inkscape:pageopacity="0"
     inkscape:pageshadow="2"
     inkscape:window-width="749"
     inkscape:window-height="515"
     id="namedview9"
     showgrid="false"
     inkscape:zoom="10.727273"
     inkscape:cx="11"
     inkscape:cy="11"
     inkscape:window-x="0"
     inkscape:window-y="28"
     inkscape:window-maximized="0"
     inkscape:current-layer="svg7" />
  <defs
     id="defs3">
    <style
       id="current-color-scheme"
       type="text/css">
   .ColorScheme-Text { color:#5c616c; } .ColorScheme-Highlight { color:#5294e2; }
  </style>
  </defs>
  <path
     style="color:#5c616c;fill:#1e333d;stroke-width:0.72727275;fill-opacity:1"
     class="ColorScheme-Text"
     d="M 12.570909,3.6363636 9.8705453,7.3764364 11.325091,7.9999999 Z M 4.2599271,5.7144728 2.181818,7.3764364 4.8834907,6.9616727 6.5454544,12.363636 7.5837816,11.740363 13.818182,12.363636 11.740364,8.4162183 10.701818,8.2074182 7.169018,10.285818 5.5071271,6.1292363 Z M 8.416218,7.3764364 6.7528725,8.4162183 7.3764362,9.8705454 10.285818,8.2074182 9.2471271,7.3764364 Z"
     id="path5"
     inkscape:connector-curvature="0" />
</svg>

<svg xmlns="http://www.w3.org/2000/svg" width="22" height="22" version="1.1" viewBox="0 0 16 16" id="svg7"><defs id="defs3"><style id="current-color-scheme" type="text/css"></style></defs><path d="M12.57 3.636l-2.7 3.74L11.326 8zM4.26 5.714L2.182 7.376l2.701-.414 1.662 5.402 1.039-.624 6.234.624-2.078-3.948-1.038-.209-3.533 2.079-1.662-4.157zm4.156 1.662l-1.663 1.04.623 1.455 2.91-1.664-1.039-.83z" id="path5" color="#5c616c" fill="#1e333d" stroke-width=".727" fill-opacity="1"/></svg>
